en/_assets/tracker/svg/pause.svg

<svg width="74" height="20" viewBox="0 0 74 20" fill="none" xmlns="http://www.w3.org/2000/svg">
<g clip-path="url(#clip0_3479_35433)">
<path fill-rule="evenodd" clip-rule="evenodd" d="M12 14.125C14.2782 14.125 16.125 12.2782 16.125 10C16.125 7.72182 14.2782 5.875 12 5.875C9.72182 5.875 7.875 7.72182 7.875 10C7.875 12.2782 9.72182 14.125 12 14.125ZM12 15.25C14.8995 15.25 17.25 12.8995 17.25 10C17.25 7.1005 14.8995 4.75 12 4.75C9.1005 4.75 6.75 7.1005 6.75 10C6.75 12.8995 9.1005 15.25 12 15.25ZM13.3125 7.9375C13.7267 7.9375 14.0625 8.27329 14.0625 8.6875V11.3125C14.0625 11.7267 13.7267 12.0625 13.3125 12.0625C12.8983 12.0625 12.5625 11.7267 12.5625 11.3125V8.6875C12.5625 8.27329 12.8983 7.9375 13.3125 7.9375ZM11.4375 8.6875C11.4375 8.27329 11.1017 7.9375 10.6875 7.9375C10.2733 7.9375 9.9375 8.27329 9.9375 8.6875V11.3125C9.9375 11.7267 10.2733 12.0625 10.6875 12.0625C11.1017 12.0625 11.4375 11.7267 11.4375 11.3125V8.6875Z" fill="#C0600F"/>
</g>
<path d="M24.092 4.679H27.069C28.1263 4.679 28.9453 4.9 29.526 5.342C30.1153 5.77533 30.41 6.45567 30.41 7.383C30.41 7.91167 30.3233 8.36667 30.15 8.748C29.9853 9.12067 29.7513 9.42833 29.448 9.671C29.1447 9.91367 28.7807 10.0913 28.356 10.204C27.94 10.3167 27.4763 10.373 26.965 10.373H25.314V14H24.092V4.679ZM25.314 5.797V9.268H26.965C27.2943 9.268 27.5933 9.23333 27.862 9.164C28.1307 9.09467 28.3603 8.98633 28.551 8.839C28.7503 8.69167 28.902 8.501 29.006 8.267C29.1187 8.02433 29.175 7.734 29.175 7.396C29.175 6.83267 28.993 6.42533 28.629 6.174C28.265 5.92267 27.745 5.797 27.069 5.797H25.314ZM35.6956 12.713C35.6176 12.869 35.518 13.0337 35.3966 13.207C35.2753 13.3717 35.1236 13.5233 34.9416 13.662C34.7596 13.8007 34.543 13.9133 34.2916 14C34.049 14.0867 33.763 14.13 33.4336 14.13C32.827 14.13 32.3373 13.961 31.9646 13.623C31.592 13.2763 31.4056 12.7823 31.4056 12.141C31.4056 11.4043 31.6613 10.8627 32.1726 10.516C32.6926 10.1693 33.4293 9.996 34.3826 9.996H35.6436V9.437C35.6436 8.969 35.5223 8.63533 35.2796 8.436C35.037 8.23667 34.621 8.137 34.0316 8.137C33.6156 8.137 33.2213 8.20633 32.8486 8.345C32.476 8.475 32.1423 8.62667 31.8476 8.8V7.773C32.0903 7.62567 32.4153 7.48267 32.8226 7.344C33.2386 7.19667 33.6936 7.123 34.1876 7.123C35.037 7.123 35.6826 7.30067 36.1246 7.656C36.5666 8.00267 36.7876 8.54433 36.7876 9.281V12.908C36.7876 12.986 36.7876 13.077 36.7876 13.181C36.7963 13.2763 36.8006 13.376 36.8006 13.48C36.8093 13.584 36.818 13.6837 36.8266 13.779C36.8353 13.8657 36.844 13.9393 36.8526 14H35.8126C35.7866 13.8787 35.7606 13.7097 35.7346 13.493C35.7173 13.2677 35.7086 13.0727 35.7086 12.908L35.6956 12.713ZM33.6806 13.103C34.036 13.103 34.3393 13.0293 34.5906 12.882C34.842 12.7347 35.0456 12.5657 35.2016 12.375C35.3576 12.1757 35.4703 11.985 35.5396 11.803C35.609 11.6123 35.6436 11.478 35.6436 11.4V10.906H34.4996C33.815 10.906 33.3166 11.0057 33.0046 11.205C32.7013 11.3957 32.5496 11.686 32.5496 12.076C32.5496 12.3793 32.6406 12.6263 32.8226 12.817C33.0046 13.0077 33.2906 13.103 33.6806 13.103ZM42.9154 12.791C42.7334 13.1723 42.4517 13.493 42.0704 13.753C41.6977 14.0043 41.2081 14.13 40.6014 14.13C39.9774 14.13 39.4704 13.9567 39.0804 13.61C38.6991 13.2547 38.5084 12.7087 38.5084 11.972V7.253H39.6654V11.972C39.6654 12.1973 39.6957 12.3837 39.7564 12.531C39.8257 12.6697 39.9167 12.7823 40.0294 12.869C40.1421 12.9557 40.2721 13.0163 40.4194 13.051C40.5754 13.0857 40.7444 13.103 40.9264 13.103C41.4291 13.103 41.8321 12.9903 42.1354 12.765C42.4387 12.5397 42.6987 12.232 42.9154 11.842V7.253H44.0594V14H43.0454L42.9414 12.791H42.9154ZM48.095 14.13C47.7396 14.13 47.4233 14.0997 47.146 14.039C46.8773 13.987 46.639 13.922 46.431 13.844C46.2316 13.7573 46.0626 13.6707 45.924 13.584C45.7853 13.4887 45.677 13.4063 45.599 13.337V12.31C45.6856 12.3967 45.8026 12.492 45.95 12.596C46.0973 12.6913 46.275 12.7823 46.483 12.869C46.691 12.9557 46.925 13.0293 47.185 13.09C47.4536 13.142 47.7526 13.168 48.082 13.168C48.5673 13.168 48.953 13.09 49.239 12.934C49.525 12.778 49.668 12.5137 49.668 12.141C49.668 11.9417 49.6203 11.7813 49.525 11.66C49.4383 11.5387 49.317 11.4433 49.161 11.374C49.005 11.296 48.823 11.2353 48.615 11.192C48.4156 11.1487 48.2033 11.1053 47.978 11.062C47.692 11.0013 47.4103 10.9363 47.133 10.867C46.8556 10.789 46.6043 10.6807 46.379 10.542C46.1536 10.3947 45.9716 10.2083 45.833 9.983C45.6943 9.749 45.625 9.44567 45.625 9.073C45.625 8.46633 45.859 7.98967 46.327 7.643C46.8036 7.29633 47.4666 7.123 48.316 7.123C48.7926 7.123 49.213 7.17067 49.577 7.266C49.9496 7.36133 50.2356 7.46533 50.435 7.578V8.605C50.2096 8.45767 49.928 8.33633 49.59 8.241C49.2606 8.137 48.849 8.085 48.355 8.085C47.8436 8.085 47.4493 8.15433 47.172 8.293C46.9033 8.43167 46.769 8.683 46.769 9.047C46.769 9.229 46.808 9.37633 46.886 9.489C46.964 9.593 47.068 9.67967 47.198 9.749C47.3366 9.80967 47.4926 9.85733 47.666 9.892C47.8393 9.92667 48.0213 9.96567 48.212 10.009C48.5066 10.0697 48.81 10.1347 49.122 10.204C49.434 10.2733 49.7113 10.3817 49.954 10.529C50.2053 10.6763 50.409 10.8757 50.565 11.127C50.7296 11.3697 50.812 11.699 50.812 12.115C50.812 12.505 50.734 12.83 50.578 13.09C50.422 13.35 50.214 13.558 49.954 13.714C49.7026 13.8613 49.4123 13.9653 49.083 14.026C48.7623 14.0953 48.433 14.13 48.095 14.13ZM57.5902 13.428C57.4948 13.4973 57.3778 13.571 57.2392 13.649C57.1005 13.727 56.9315 13.805 56.7322 13.883C56.5328 13.9523 56.3075 14.0087 56.0562 14.052C55.8048 14.104 55.5232 14.13 55.2112 14.13C54.0758 14.13 53.2135 13.8223 52.6242 13.207C52.0348 12.5917 51.7402 11.7293 51.7402 10.62C51.7402 10.074 51.8182 9.58433 51.9742 9.151C52.1388 8.71767 52.3642 8.35367 52.6502 8.059C52.9362 7.75567 53.2742 7.526 53.6642 7.37C54.0542 7.20533 54.4788 7.123 54.9382 7.123C55.4235 7.123 55.8568 7.20533 56.2382 7.37C56.6195 7.53467 56.9315 7.77733 57.1742 8.098C57.4255 8.41867 57.5945 8.81733 57.6812 9.294C57.7765 9.762 57.7765 10.308 57.6812 10.932H52.9232C52.9665 11.66 53.1832 12.206 53.5732 12.57C53.9632 12.9253 54.5438 13.103 55.3152 13.103C55.8352 13.103 56.2815 13.0293 56.6542 12.882C57.0268 12.7347 57.3388 12.5743 57.5902 12.401V13.428ZM54.9122 8.137C54.4182 8.137 53.9935 8.28867 53.6382 8.592C53.2828 8.89533 53.0575 9.35467 52.9622 9.97H56.5892C56.6238 9.346 56.4808 8.88667 56.1602 8.592C55.8395 8.28867 55.4235 8.137 54.9122 8.137ZM63.9507 12.674C63.7427 13.116 63.4524 13.4713 63.0797 13.74C62.707 14 62.2347 14.13 61.6627 14.13C61.2554 14.13 60.8697 14.0607 60.5057 13.922C60.1417 13.7747 59.821 13.558 59.5437 13.272C59.2664 12.9773 59.0454 12.6133 58.8807 12.18C58.716 11.738 58.6337 11.218 58.6337 10.62C58.6337 10.0307 58.716 9.51933 58.8807 9.086C59.0454 8.644 59.2664 8.28 59.5437 7.994C59.821 7.69933 60.1417 7.48267 60.5057 7.344C60.8784 7.19667 61.2684 7.123 61.6757 7.123C62.187 7.123 62.629 7.23133 63.0017 7.448C63.3744 7.656 63.6734 7.955 63.8987 8.345V4.679H65.0427V14H64.0417L63.9507 12.674ZM61.8317 13.103C62.1264 13.103 62.3994 13.0553 62.6507 12.96C62.902 12.856 63.1187 12.7 63.3007 12.492C63.4914 12.284 63.6387 12.024 63.7427 11.712C63.8554 11.4 63.9117 11.036 63.9117 10.62C63.9117 10.204 63.8554 9.84 63.7427 9.528C63.6387 9.216 63.4914 8.956 63.3007 8.748C63.1187 8.54 62.902 8.38833 62.6507 8.293C62.3994 8.189 62.1264 8.137 61.8317 8.137C61.2337 8.137 60.744 8.34933 60.3627 8.774C59.99 9.19 59.8037 9.80533 59.8037 10.62C59.8037 11.4433 59.9944 12.063 60.3757 12.479C60.757 12.895 61.2424 13.103 61.8317 13.103Z" fill="#C0600F"/>
<defs>
<clipPath id="clip0_3479_35433">
<rect width="12" height="12" fill="white" transform="translate(6 4)"/>
</clipPath>
</defs>
</svg>

<svg xmlns="http://www.w3.org/2000/svg" width="74" height="20" fill="none" viewBox="0 0 74 20">
    <g clip-path="url(#clip0_3479_35433)">
        <path fill="#C0600F" fill-rule="evenodd" d="M12 14.125a4.125 4.125 0 1 0 0-8.25 4.125 4.125 0 0 0 0 8.25Zm0 1.125a5.25 5.25 0 1 0 0-10.5 5.25 5.25 0 0 0 0 10.5Zm1.313-7.313a.75.75 0 0 1 .75.75v2.626a.75.75 0 0 1-1.5 0V8.687a.75.75 0 0 1 .75-.75Zm-1.876.75a.75.75 0 0 0-1.5 0v2.626a.75.75 0 0 0 1.5 0V8.687Z" clip-rule="evenodd"/>
    </g>
    <path fill="#C0600F" d="M24.092 4.679h2.977c1.057 0 1.876.221 2.457.663.59.433.884 1.114.884 2.041 0 .529-.087.984-.26 1.365-.165.373-.399.68-.702.923-.303.243-.667.42-1.092.533-.416.113-.88.169-1.391.169h-1.651V14h-1.222V4.679Zm1.222 1.118v3.471h1.651c.33 0 .628-.035.897-.104a1.88 1.88 0 0 0 .689-.325c.2-.147.351-.338.455-.572a2.05 2.05 0 0 0 .169-.871c0-.563-.182-.97-.546-1.222-.364-.251-.884-.377-1.56-.377h-1.755Zm10.382 6.916c-.078.156-.178.32-.3.494a2.26 2.26 0 0 1-1.104.793c-.243.087-.529.13-.858.13-.607 0-1.097-.169-1.47-.507-.372-.347-.558-.84-.558-1.482 0-.737.255-1.278.767-1.625.52-.347 1.256-.52 2.21-.52h1.26v-.559c0-.468-.12-.802-.363-1.001-.243-.2-.659-.299-1.248-.299-.416 0-.81.07-1.183.208-.373.13-.707.282-1.001.455V7.773c.242-.147.567-.29.975-.429a4.063 4.063 0 0 1 1.365-.221c.849 0 1.495.178 1.937.533.442.347.663.888.663 1.625v3.9c.008.095.013.195.013.299.008.104.017.204.026.299.008.087.017.16.026.221h-1.04a5.934 5.934 0 0 1-.078-.507 7.787 7.787 0 0 1-.026-.585l-.013-.195Zm-2.015.39c.355 0 .658-.074.91-.221.251-.147.455-.316.61-.507.157-.2.27-.39.339-.572.069-.19.104-.325.104-.403v-.494H34.5c-.685 0-1.183.1-1.495.299-.304.19-.455.481-.455.871 0 .303.09.55.273.741.182.19.468.286.858.286Zm9.234-.312a2.42 2.42 0 0 1-.845.962c-.372.251-.862.377-1.469.377-.624 0-1.13-.173-1.52-.52-.382-.355-.573-.901-.573-1.638V7.253h1.157v4.719c0 .225.03.412.091.559a.96.96 0 0 0 .663.52c.156.035.325.052.507.052.503 0 .906-.113 1.21-.338a2.85 2.85 0 0 0 .78-.923V7.253h1.143V14h-1.014l-.104-1.209h-.026Zm5.18 1.339c-.355 0-.672-.03-.949-.091a4.455 4.455 0 0 1-.715-.195 3.886 3.886 0 0 1-.507-.26 3.42 3.42 0 0 1-.325-.247V12.31c.087.087.204.182.351.286.147.095.325.186.533.273.208.087.442.16.702.221.269.052.568.078.897.078.485 0 .871-.078 1.157-.234.286-.156.429-.42.429-.793 0-.2-.048-.36-.143-.481a.868.868 0 0 0-.364-.286 2.24 2.24 0 0 0-.546-.182c-.2-.043-.412-.087-.637-.13-.286-.06-.568-.126-.845-.195a2.956 2.956 0 0 1-.754-.325 1.767 1.767 0 0 1-.546-.559c-.139-.234-.208-.537-.208-.91 0-.607.234-1.083.702-1.43.477-.347 1.14-.52 1.989-.52a5 5 0 0 1 1.261.143c.373.095.659.2.858.312v1.027a3.06 3.06 0 0 0-.845-.364c-.33-.104-.741-.156-1.235-.156-.511 0-.906.07-1.183.208-.269.139-.403.39-.403.754 0 .182.039.33.117.442.078.104.182.19.312.26.139.06.295.108.468.143.173.035.355.074.546.117.295.06.598.126.91.195.312.07.59.178.832.325.251.147.455.347.611.598.165.243.247.572.247.988 0 .39-.078.715-.234.975-.156.26-.364.468-.624.624a2.664 2.664 0 0 1-.871.312c-.32.07-.65.104-.988.104Zm9.495-.702a3.646 3.646 0 0 1-.858.455c-.2.07-.425.126-.676.169a4.186 4.186 0 0 1-.845.078c-1.135 0-1.997-.308-2.587-.923-.59-.615-.884-1.478-.884-2.587 0-.546.078-1.036.234-1.469a3.15 3.15 0 0 1 .676-1.092 2.812 2.812 0 0 1 1.014-.689c.39-.165.815-.247 1.274-.247.485 0 .919.082 1.3.247.382.165.694.407.936.728.252.32.42.72.507 1.196.096.468.096 1.014 0 1.638h-4.758c.044.728.26 1.274.65 1.638.39.355.97.533 1.742.533.52 0 .967-.074 1.34-.221a4.69 4.69 0 0 0 .935-.481v1.027Zm-2.678-5.291c-.494 0-.919.152-1.274.455-.355.303-.58.763-.676 1.378h3.627c.035-.624-.108-1.083-.429-1.378-.32-.303-.736-.455-1.248-.455Zm9.039 4.537a2.707 2.707 0 0 1-.871 1.066c-.373.26-.845.39-1.417.39-.408 0-.793-.07-1.157-.208a2.78 2.78 0 0 1-.962-.65 3.262 3.262 0 0 1-.663-1.092c-.165-.442-.247-.962-.247-1.56 0-.59.082-1.1.247-1.534.164-.442.385-.806.663-1.092a2.56 2.56 0 0 1 .962-.65 3.154 3.154 0 0 1 1.17-.221c.511 0 .953.108 1.326.325.372.208.671.507.897.897V4.679h1.144V14h-1.001l-.091-1.326Zm-2.12.429c.295 0 .568-.048.82-.143.251-.104.468-.26.65-.468.19-.208.338-.468.442-.78.112-.312.169-.676.169-1.092 0-.416-.057-.78-.17-1.092a2.135 2.135 0 0 0-.441-.78 1.614 1.614 0 0 0-.65-.455 2.12 2.12 0 0 0-.82-.156c-.597 0-1.087.212-1.468.637-.373.416-.56 1.031-.56 1.846 0 .823.191 1.443.573 1.859.381.416.866.624 1.456.624Z"/>
    <defs>
        <clipPath id="clip0_3479_35433">
            <path fill="#fff" d="M6 4h12v12H6z"/>
        </clipPath>
    </defs>
</svg>
